X: 302
T: Taiping nian
%%abc-version 2.0
%%abcx-abcm2ps-target-version 5.9.1 (29 Sep 2008)
%%abc-creator hum2abc beta
%%abcx-conversion-date 2013/10/02 07:52:29
%%abc-edited-by Helmut Schaffrath
%%humdrum-veritas 1400915977
%%humdrum-veritas-data 566226870
%%continueall 1
%%barnumbers 0
L: 1/8
M: 1/4
K: G
A A A B [I:setbarnb 1]| 
d g e d | 
d2B A | 
d2G B | 
A4 | 
A< A A B | 
d g e d | 
B d B A | 
d2G B | 
A4 | 
d2g e | 
d g e d | 
A BA2 | 
g B B3/ A/ | 
B/ A/G2E | 
D4 | 
E> G E G | 
A3B | 
d B A3/ G/ | 
G ED2 | 
G B A d | 
G E D B, | 
D3E | 
D4 |]  



